X:10
T: Yuba zhen xongcan
N: C1510
O: China,Guangdong, Haifeng
S: II, 392]
R: Xiaodiao, Yge]
M: 2/4
L: 1/16
K: C
A2G2c4 | A2G2c2A2 | G6
A2 | G4G2A2 | c4A2d2 | d6c2 | d8 |
e4e2c2 | d2c2d2e2 | d6
c2 | d2c2c2A2 | G4dcA2 | G6A2 | G6z2 |
G3Ac2d2 | c2A2c4 |
A2dcA2G2 | A2G2A2c2 | GAc2G2A2 | G6
A2 | G3Ac2G2 | G3Ad2Ac | c4(3d2c2A2 | G2c2A2z2A2GA | G8

@@@ Tune index: 6565
